src/components/Icon/assets/bot-filled.svg

<svg width="24" height="24" viewBox="0 0 24 24" fill="none" xmlns="http://www.w3.org/2000/svg">
<path fill-rule="evenodd" clip-rule="evenodd" d="M12.0041 2.00208C13.6481 2.00208 14.9801 3.33408 14.9801 4.97808H9.02809C9.02809 3.33408 10.3611 2.00208 12.0041 2.00208ZM14.4124 12.9743C14.4124 14.7613 14.8344 15.4903 15.8444 15.4903C16.8544 15.4903 17.2764 14.7613 17.2764 12.9743C17.2764 11.1883 16.8544 10.4593 15.8444 10.4593C14.8344 10.4593 14.4124 11.1883 14.4124 12.9743ZM6.73242 12.9743C6.73242 14.7613 7.15442 15.4903 8.16442 15.4903C9.17442 15.4903 9.59642 14.7613 9.59642 12.9743C9.59642 11.1883 9.17442 10.4593 8.16442 10.4593C7.15442 10.4593 6.73242 11.1883 6.73242 12.9743ZM4.18739 5.97427H19.8214C21.0274 5.97427 22.0044 6.95127 22.0044 8.15727V17.7913C22.0044 18.9973 21.0274 19.9743 19.8214 19.9743H4.18739C2.98139 19.9743 2.00439 18.9973 2.00439 17.7913V8.15727C2.00439 6.95127 2.98139 5.97427 4.18739 5.97427Z" fill="#65676A"/>
</svg>

<svg xmlns="http://www.w3.org/2000/svg" width="24" height="24" viewBox="0 0 24 24">
    <path fill="#65676A" fill-rule="evenodd" d="M19.821 5.974c1.206 0 2.183.977 2.183 2.183v9.634c0 1.206-.977 2.183-2.183 2.183H4.187c-1.206 0-2.183-.977-2.183-2.183V8.157c0-1.206.977-2.183 2.183-2.183zm-3.977 4.485c-1.01 0-1.432.73-1.432 2.515 0 1.787.422 2.516 1.432 2.516s1.432-.729 1.432-2.516c0-1.786-.422-2.515-1.432-2.515zm-7.68 0c-1.01 0-1.432.73-1.432 2.515 0 1.787.422 2.516 1.432 2.516s1.432-.729 1.432-2.516c0-1.786-.422-2.515-1.432-2.515zm3.84-8.457c1.644 0 2.976 1.332 2.976 2.976H9.028c0-1.644 1.333-2.976 2.976-2.976z"/>
</svg>
